icon-themes/sifr_svg/cmd/lc_hangingindent.svg

<svg viewBox="0 0 24 24" xmlns="http://www.w3.org/2000/svg"><path d="m2 3v2h20v-2zm0 4v1c0 .4557421.3378986.6607562.6835938 1l3.3164062 3-3.3164062 3c-.3857982.330518-.6835938.515682-.6835938 1v1h.4121094.5878906c.30945 0 .55232-.0903.75-.28125l4.25-3.882812v-1.615235l-4.25-3.939453c-.19768-.19095-.395782-.28125-.75-.28125h-.5878906zm8 0v2h12v-2zm0 4v2h12v-2zm0 4v2h12v-2zm-8 4v2h20v-2z" fill="#555753"/></svg>

<?xml version="1.0" encoding="UTF-8" standalone="no"?>
<svg
   xmlns:dc="http://purl.org/dc/elements/1.1/"
   xmlns:cc="http://creativecommons.org/ns#"
   xmlns:rdf="http://www.w3.org/1999/02/22-rdf-syntax-ns#"
   xmlns:svg="http://www.w3.org/2000/svg"
   xmlns="http://www.w3.org/2000/svg"
   xmlns:sodipodi="http://sodipodi.sourceforge.net/DTD/sodipodi-0.dtd"
   xmlns:inkscape="http://www.inkscape.org/namespaces/inkscape"
   viewBox="0 0 24 24"
   version="1.1"
   id="svg4"
   sodipodi:docname="lc_hangingindent.svg"
   inkscape:version="0.92.4 (unknown)">
  <metadata
     id="metadata10">
    <rdf:RDF>
      <cc:Work
         rdf:about="">
        <dc:format>image/svg+xml</dc:format>
        <dc:type
           rdf:resource="http://purl.org/dc/dcmitype/StillImage" />
        <dc:title></dc:title>
      </cc:Work>
    </rdf:RDF>
  </metadata>
  <defs
     id="defs8" />
  <sodipodi:namedview
     pagecolor="#ffffff"
     bordercolor="#666666"
     borderopacity="1"
     objecttolerance="10"
     gridtolerance="10"
     guidetolerance="10"
     inkscape:pageopacity="0"
     inkscape:pageshadow="2"
     inkscape:window-width="1366"
     inkscape:window-height="706"
     id="namedview6"
     showgrid="true"
     inkscape:zoom="19.666667"
     inkscape:cx="1.4005283"
     inkscape:cy="3.1356079"
     inkscape:window-x="0"
     inkscape:window-y="0"
     inkscape:window-maximized="1"
     inkscape:current-layer="svg4">
    <inkscape:grid
       type="xygrid"
       id="grid817" />
  </sodipodi:namedview>
  <path
     d="M 2,3 V 5 H 22 V 3 Z M 2,7 V 8 C 2,8.4557421 2.3378986,8.6607562 2.6835938,9 L 6,12 2.6835938,15 C 2.2977956,15.330518 2,15.515682 2,16 v 1 H 2.4121094 3 c 0.30945,0 0.55232,-0.0903 0.75,-0.28125 L 8,12.835938 V 11.220703 L 3.75,7.28125 C 3.55232,7.0903 3.354218,7 3,7 H 2.4121094 Z m 8,0 V 9 H 22 V 7 Z m 0,4 v 2 h 12 v -2 z m 0,4 v 2 h 12 v -2 z m 0,4 v 2 h 12 v -2 z"
     id="path2"
     inkscape:connector-curvature="0"
     style="fill:#555753"
     sodipodi:nodetypes="ccccccscccsccsccccscccccccccccccccccccccc" />
</svg>
